src/scalable/mimetypes/application-ogg.svg

<?xml version="1.0" encoding="UTF-8" standalone="no"?>
<svg
   xmlns:dc="http://purl.org/dc/elements/1.1/"
   xmlns:cc="http://creativecommons.org/ns#"
   xmlns:rdf="http://www.w3.org/1999/02/22-rdf-syntax-ns#"
   xmlns:svg="http://www.w3.org/2000/svg"
   xmlns="http://www.w3.org/2000/svg"
   xmlns:xlink="http://www.w3.org/1999/xlink"
   xmlns:sodipodi="http://sodipodi.sourceforge.net/DTD/sodipodi-0.dtd"
   xmlns:inkscape="http://www.inkscape.org/namespaces/inkscape"
   width="48px"
   height="48px"
   viewBox="0 0 48 48"
   version="1.1"
   id="svg18"
   sodipodi:docname="application-ogg.svg"
   inkscape:version="0.92.2 2405546, 2018-03-11">
  <metadata
     id="metadata22">
    <rdf:RDF>
      <cc:Work
         rdf:about="">
        <dc:format>image/svg+xml</dc:format>
        <dc:type
           rdf:resource="http://purl.org/dc/dcmitype/StillImage" />
      </cc:Work>
    </rdf:RDF>
  </metadata>
  <sodipodi:namedview
     pagecolor="#ffffff"
     bordercolor="#666666"
     borderopacity="1"
     objecttolerance="10"
     gridtolerance="10"
     guidetolerance="10"
     inkscape:pageopacity="0"
     inkscape:pageshadow="2"
     inkscape:window-width="1118"
     inkscape:window-height="692"
     id="namedview20"
     showgrid="false"
     inkscape:zoom="4.9166667"
     inkscape:cx="24"
     inkscape:cy="24"
     inkscape:window-x="661"
     inkscape:window-y="149"
     inkscape:window-maximized="0"
     inkscape:current-layer="svg18" />
  <!-- Generator: Sketch 41.2 (35397) - http://www.bohemiancoding.com/sketch -->
  <title
     id="title2">application-ogg</title>
  <desc
     id="desc4">Created with Sketch.</desc>
  <g
     id="g829">
    <rect
       rx="2"
       ry="1.9047618"
       y="4"
       x="6"
       height="40"
       width="36"
       id="rect834"
       style="opacity:1;fill:#ab47bc;fill-opacity:1;stroke:none;stroke-width:0.92582005;stroke-linecap:round;stroke-linejoin:round;stroke-miterlimit:4;stroke-dasharray:none;stroke-opacity:0.05882353;paint-order:markers stroke fill" />
    <path
       inkscape:connector-curvature="0"
       id="rect866"
       d="M 42,17.242188 A 40,40 0 0 1 23.494141,44 H 40 c 1.108,0 2,-0.849059 2,-1.904297 z"
       style="opacity:0.15;fill:url(#linearGradient877);fill-opacity:1;stroke:none;stroke-width:0.92582005;stroke-linecap:round;stroke-linejoin:round;stroke-miterlimit:4;stroke-dasharray:none;stroke-opacity:0.05882353;paint-order:markers stroke fill" />
  </g>
  <defs
     id="defs11">
    <linearGradient
       x1="90.7002767%"
       y1="6.56534831%"
       x2="35.3271484%"
       y2="64.1438802%"
       id="linearGradient-1">
      <stop
         stop-color="#93DEF2"
         offset="0%"
         id="stop6" />
      <stop
         stop-color="#5ABADF"
         offset="100%"
         id="stop8" />
    </linearGradient>
    <linearGradient
       inkscape:collect="always"
       xlink:href="#linearGradient875"
       id="linearGradient877"
       x1="32.74707"
       y1="44"
       x2="32.74707"
       y2="17.242188"
       gradientUnits="userSpaceOnUse" />
    <linearGradient
       inkscape:collect="always"
       id="linearGradient875">
      <stop
         style="stop-color:#000000;stop-opacity:1;"
         offset="0"
         id="stop871" />
      <stop
         style="stop-color:#000000;stop-opacity:0;"
         offset="1"
         id="stop873" />
    </linearGradient>
  </defs>
  <g
     id="Page-1"
     stroke="none"
     stroke-width="1"
     fill="none"
     fill-rule="evenodd">
    <g
       id="application-ogg">
      <path
         d="M29.6036414,18.9878624 L30.1352282,28.5693794 C29.2571001,28.3503553 28.1745347,28.5360594 27.2577324,28.6933283 C25.5328103,28.9892226 24.328304,30.2981047 24.5673921,31.6167982 C24.8064803,32.9354916 26.3986251,33.7646342 28.1235471,33.4687398 C29.8240076,33.1770416 32.0947236,32.7875214 31.744035,30.4889748 L31.0488362,17.9584536 C31.037456,17.7533336 30.9446742,17.5720512 30.8035792,17.444216 C30.6496868,17.233042 30.4137172,17.082056 30.1345235,17.0428179 L19.3391853,15.525632 C19.1820469,15.5035477 19.0283131,15.5192653 18.8871766,15.5658577 C18.8576864,15.5646782 18.8278114,15.565224 18.7976596,15.5675873 C18.3847124,15.5999532 18.0761905,15.9609508 18.1085564,16.3738979 L18.8919082,26.3684365 C18.0216727,26.1659252 16.9595074,26.3481298 16.0577201,26.502823 C14.3327981,26.7987173 13.1282918,28.1075994 13.3673799,29.4262929 C13.6064681,30.7449863 15.1986129,31.5741289 16.9235349,31.2782345 C18.6097915,30.9889729 20.8568167,30.6035166 20.5522639,28.3556701 L19.7090419,17.5972671 L29.6036414,18.9878624 L29.6036414,18.9878624 Z"
         id="Combined-Shape"
         fill="#FFFFFF" />
    </g>
  </g>
</svg>

<svg xmlns="http://www.w3.org/2000/svg" xmlns:xlink="http://www.w3.org/1999/xlink" width="48" height="48"><g paint-order="markers stroke fill"><rect rx="2" ry="1.905" y="4" x="6" height="40" width="36" fill="#ab47bc"/><path d="M42 17.242A40 40 0 0 1 23.494 44H40c1.108 0 2-.85 2-1.904z" opacity=".15" fill="url(#a)"/></g><defs><linearGradient xlink:href="#b" id="a" x1="32.747" y1="44" x2="32.747" y2="17.242" gradientUnits="userSpaceOnUse"/><linearGradient id="b"><stop offset="0"/><stop offset="1" stop-opacity="0"/></linearGradient></defs><path d="M29.604 18.988l.531 9.581c-.878-.219-1.96-.033-2.877.124-1.725.296-2.93 1.605-2.69 2.924.238 1.318 1.83 2.148 3.556 1.852 1.7-.292 3.97-.681 3.62-2.98l-.695-12.53a.748.748 0 0 0-.245-.515.997.997 0 0 0-.67-.401L19.34 15.526a.996.996 0 0 0-.452.04.75.75 0 0 0-.779.808l.784 9.994c-.87-.202-1.932-.02-2.834.135-1.725.296-2.93 1.605-2.69 2.923.238 1.319 1.83 2.148 3.556 1.852 1.686-.289 3.933-.674 3.628-2.922l-.843-10.759 9.895 1.39z" fill="#FFF" fill-rule="evenodd"/></svg>
